X:78
M:9/8
L:1/8
Q:3/8=70
K:A
c|f2f f>ec c>B z/A/|c2 B/A/ A2 F/E/ E2 c/B/|A2 G F>^EF ABc|
f2 c/B/ A2 F/>^E/ F2c|
f2f f>ec c>B z/A/|c2 B/A/ A2 F/E/ E2 a/g/|fcB A2 G/F/ ABc|
f2 c/B/ A2 F/^E/ F2||

